!!!COM: Gonzaga, Francisca
!!!CDT: 1847/10/17-1935/02/28
!!!OTL: Linda Morena
**kern	**kern
*part1	*part1
*staff2	*staff1
*clefF4	*clefG2
*k[f#c#]	*k[f#c#]
*M2/4	*M2/4
=1	=1
*D:	*
!	!LO:TX:a:B:t=Moderato
16DKL	16dKL 16f# 16b
8A	8d 8f# 8a
16AJk	16dJk 16f# 16b
8AAL	8dL 8f# 8a
8AJ	8dJ
=2	=2
16EKL	16c#KL
8A	8c# 8g 8b
16AJk	16c#Jk 16g 16a
8AAL	8c#L 8g 8b
8AJ	8c#J 8g 8a
=3	=3
16EKL	16c#KL 16g 16b
8A	8c# 8g 8a
16AJk	16c#Jk 16g 16b
8AAL	8c#L 8g 8a
8AJ	8c#J
=4	=4
16DKL	16dKL
8A	8d 8f# 8b
16AJk	16dJk 16f# 16a
8AAL	8dL 8f# 8b
8AJ	8dJ 8f# 8a
=5	=5
16BBKL	16aKL 16dd#X 16gg
8A 8B 8d#X	8a 8dd# 8ff#
16AJk 16B 16d#	16aJk 16dd# 16gg
8D#XL	8aL 8dd# 8ff#
8AJ 8B 8d#	8aJ 8b
=6	=6
16EKL	16g#XKL
8B 8d 8e	8g# 8dd 8ff#
16BJk 16d 16e	16g#Jk 16dd 16ee
8BL 8d 8e	8g#L 8dd 8ff#
8BJ 8d 8e	8g#J 8dd 8ee
!!linebreak:original
=7	=7
16AAKL	16gKL 16cc# 16ff#
8G 8A 8c#	8g 8cc# 8ee
16GJk 16A 16c#	16gJk 16cc# 16ff#
8AAL	8gL 8cc# 8ee
8GJ 8A 8c#	8gJ 8cc#
=8	=8
16DKL	16f#KL 16b
8F#	8d 8a
16FnJk	16dJk 16g#X
8EL	4c# 4gn
8AAJ	.
=9:|!	=9:|!
16ELL	8.bL 8.ee 8.gg 8.bb
16G	.
16B	.
16eJJ	16bJk 16ee 16gg 16bb
4g	16r
.	8b^L 8bb
.	16b-X^Jk 16bb-X
=10	=10
16EKL	16aKL 16cc# 16aa
8G 8A 8c#	8a 8cc# 8gg
16GJk 16A 16c#	16aJk 16cc# 16ee
8AAL	8gL 8cc#
8GJ 8A 8c#	8gJ 8a
=11	=11
4D 4A 4d	4f# 4a 4dd
8DD 8D	8dd 8ff# 8aa 8ddd
8r	8r
=12!|:	=12!|:
!	!LO:TX:a:t=Fine
16DKL	8.dL
8A	.
16AJk	16dJk 16f# 16a
8AL	8dL 8f# 8b
8AAJ	8dJ
!!linebreak:original
=13	=13
16EKL	16c#KL
8A	8c# 8g 8a
16AJk	16c#Jk 16g 16a
8AL	4c# 4g 4a
8AAJ	.
=14	=14
16BBKL	16BKL 16d 16g
8F#	8B 8d 8f#
16F#Jk	16BJk 16d 16e#X
8F#L	16BKL 16d 16f#
.	8B 8d 8a
8FF#J	.
.	16BJk 16d 16g
=15	=15
16C#KL	8.A#XL 8.e 8.f#
8F#	.
16F#Jk	16c#Jk
8F#L	4A# 4e 4f#
8FF#J	.
=16	=16
16GGKL	16r
8BB	8GL 8B 8e
16EJk	16GJk 16B 16e
8EL	16GLL 16B 16e
.	16d
8GG#XJ 8BB 8E#X	16c#
.	16dJJ
=17	=17
16AAKL	4A 4d 4f# 4a
8D	.
16F#Jk	.
8AL	4d 4f# 4a
8FF#J 8F#	.
=18	=18
8.EEL 8.E	16r
.	8dL 8g#X 8b
[16EJk [16B	16dJk 16g# 16b
8EL] 8B]	16dKL 16g# 16b
.	8d 8g# 8cc#
8EJ 8B	.
.	16dJk 16g# 16dd
!!linebreak:original
=19	=19
4AA: 4E: 4c#:	16ff#KL
.	8ee
.	16cc#Jk
16AAKL	16aKL
8BB	8g
16C#Jk	16eJk
=20:|!	=20:|!
16AAKL	4A 4d 4f# 4a
8D	.
16F#Jk	.
8AL	4d 4f# 4a 4dd
8FF#J 8F#	.
=21	=21
*	*^
4EE: 4BB: 4G#X:	16cc#KL	4d
.	8b	.
.	16f#Jk	.
4AA 4E 4Gn	16aKL	4c#
.	8g	.
.	16c#Jk	.
*	*v	*v
=22	=22
8DL 8F# 8A	4d
8AAJ	.
4DD 4D	4d 4f# 4a 4dd
=23!|:	=23!|:
*G:	*
2d	8r
.	(8ddL
.	8bb
.	8aaJ)
=24	=24
16F#KL	4ddd
8cn 8d 8f#	.
16cJk 16d 16f#	.
8DL	4ccn: 4ff#: 4ddd:
8cJ 8d 8f#	.
=25	=25
16F#KL	8r
8cn 8d 8f#	.
.	8ccn 8ff# 8bb
16cJk 16d 16f#	.
8DL	16r
.	8ccL 8ff# 8bb
8cJ 8d 8f#	.
.	16ccJk 16ff# 16bb
!!linebreak:original
=26	=26
16GGKL 16G	4b 4dd 4aa
8DD 8D	.
16EEJk 16E	.
16FF#KL 16F#	4b 4dd 4gg
8GG 8G	.
16AAJk 16A	.
=27	=27
4BB 4B	16r
.	8gL 8b 8dd
.	16gJk 16b 16dd
4BB-X 4B-X	8gL 8cc# 8gg
.	8gJ 8cc# 8gg
=28	=28
16AAKL	16gKL 16ccn 16gg
8A 8cn 8e	8g 8cc 8gg
16AJk 16c 16e	16gJk 16cc 16ee
8AL 8c 8e	8gL 8cc 8ee
8AJ 8c 8e	8gJ 8cc 8gg
=29	=29
16DKL	16f#KL 16ccn
8d	8f# 8cc 8ee#X
16dJk	16f#Jk 16cc 16ff#
8CnL	8ddL 8ff# 8ddd
8cnJ	8ddJ 8ff# 8ddd
=30	=30
(16BBLL	[2dd [2gg [2bb [2ddd
16D	.
16G	.
16BJJ	.
16dLL	.
16g	.
16f#	.
16eJJ	.
=31	=31
4d)	8ddL] 8gg] 8bb] 8ddd]
.	8dddJ
4E: 4B: 4g#X:	8ddL 8gg#X 8cccn
.	8bbJ
=32	=32
16AAKL	4ee 4aa 4ddd
8cn 8e 8a	.
16cJk 16e 16a	.
8cL 8e 8a	4ee 4aa 4cccn
8cJ 8e 8a	.
!!pagebreak:original
=33	=33
16EKL	16r
8d 8e 8g#X	8ddL 8gg#X 8bb
16dJk 16e 16g#	16ddJk 16gg# 16bb
8dL 8e 8g#	16ddKL 16gg# 16bb
.	8dd 8gg# 8ddd
8dJ 8e 8g#	.
.	16ddJk 16gg# 16cccn
=34	=34
16AKL	4ccn 4ee 4bb
8cn 8e 8a	.
16cJk 16e 16a	.
8cL 8e 8a	4cc 4ee 4aa
8cJ 8e 8a	.
=35	=35
16CnKL	16r
8cn	8gL 8ccn 8ee-X 8gg
16cJk	16gJk 16cc 16ee- 16gg
8E-XL 8e-X	8gL 8cc 8ee- 8gg
8CJ 8c	8gJ 8cc 8ee- 8aa
=36	=36
16DKL	16ddKL 16gg 16bb
8B 8d 8g	8dd 8gg 8bb
16BJk 16d 16g	16ddJk 16gg 16ddd
8EL	8ddL 8gg#X 8cccn
8G#XJ 8d 8e	8ddJ 8gg# 8bb
=37	=37
8AAL	4cc# 4ee
8AJ 8c# 8g	.
8DL	4ccn 4ff# 4aa
8cnJ 8d 8f#	.
=38	=38
16GGLL	2b 2dd 2gg
16D	.
16G	.
16BJJ	.
16dKL	.
8f#	.
16eJk	.
!!linebreak:original
=39:|!	=39:|!
8AAL	4ee 4aa 4ccc# 4eee
8AJ 8c# 8g	.
8DDL	4ff# 4cccn 4fff#
8AJ 8cn 8d 8f#	.
=40	=40
8GGL 8G	2gg 2bb 2ddd 2ggg
8DDJ 8D	.
4GGG 4GG	.
*	*X8
==	==
*-	*-
!!!system-decoration: {(s1,s2)}
!!!AGN: Tango
!!!EED: Florian Moldaschl
!!!END: 2025/12/23
!!!ENC: Florian Moldaschl
!!!EEV: 2026/01/14
!!!title: @{OPR}, @{SCT} №@{ONM}